X: 1
T: The Slip-On Gang
R: reel
C: Damien McKee
M: 4/4
L: 1/8
Z: Contributed 2016-01-12 23:07:13 by debby knight debbyjk@aol.com
Z: 2016 John Chambers <jc:trillian.mit.edu>
K: A
z2 |:\
"A"[e3A3]e efed | "A/C#"caaa eAce | "D"dfed "A/C#"ceAc |\
[1,3 "Bm"B2ef  "E7"edBG :|\
[2 "E/E-G#"BedB "A"A2 cd :|
[4 "E/E-G#"BedB "A"A2 |:\
GA |\
"E"BE (3EEE eBde | "A"cA (3AAA "A/C#"cAce |\
"D"fd (3ddd "A/C#"ec (3ccc |
"Bm"d2cd "Bm/A"BAGA |\
"E/G#"BE (3EEE "E"eBde | "A"cA (3AAA cA"A/C#"ce |\
"D"fd (3ddd "A"ec Ac | "E"dBGB "A"A2 :|
